src/images/media-kit/logos/mono-light.svg

<svg xmlns="http://www.w3.org/2000/svg" fill="none" viewBox="0 0 699 699"><g clip-path="url(#a)"><mask id="b" width="699" height="699" x="0" y="0" maskUnits="userSpaceOnUse" style="mask-type:luminance"><path fill="#fff" d="M699 0H0v699h699V0Z"/></mask><g fill="#fff" mask="url(#b)"><path d="M349.5 37.2983c42.164 0 83.048 8.2513 121.516 24.5216 18.493 7.8203 36.331 17.5054 53.021 28.7778 16.54 11.1733 32.095 24.0073 46.233 38.1433 14.137 14.137 26.97 29.694 38.145 46.23 11.274 16.689 20.958 34.526 28.776 53.017 16.268 38.467 24.518 79.346 24.518 121.51s-8.25 83.043-24.518 121.51c-7.822 18.491-17.502 36.328-28.776 53.017-11.175 16.54-24.008 32.093-38.145 46.229-14.138 14.136-29.693 26.971-46.233 38.144-16.69 11.277-34.528 20.958-53.021 28.778-38.468 16.27-79.352 24.522-121.516 24.522s-83.048-8.252-121.516-24.522c-18.493-7.82-36.331-17.505-53.021-28.778-16.54-11.173-32.095-24.008-46.233-38.144-14.137-14.136-26.97-29.693-38.1448-46.229-11.2745-16.689-20.9578-34.526-28.7766-53.017-16.2674-38.467-24.5171-79.346-24.5171-121.51s8.2497-83.043 24.5171-121.51c7.8229-18.491 17.5021-36.328 28.7766-53.017 11.1748-16.54 24.0078-32.093 38.1448-46.23 14.138-14.136 29.693-26.97 46.233-38.1433 16.69-11.2766 34.528-20.9575 53.021-28.7778 38.468-16.2703 79.352-24.5216 121.516-24.5216ZM349.5 0C156.475 0 0 156.475 0 349.502c0 193.027 156.475 349.502 349.5 349.502S699 542.529 699 349.502C699 156.475 542.525 0 349.5 0Z"/><path d="M243.446 215.58v-25.769c0-20.845 13.64-37.787 34.184-41.413 15.526-2.739 29.875.162 41.298 12.043 7.487 7.783 11.349 17.186 11.498 27.995.129 8.964.029 17.932.029 27.02H377.6c.033-.559.091-1.152.091-1.749v-24.451c.062-23.154 18.356-41.442 41.502-41.654 7.98-.083 15.745.709 22.851 4.559 14.581 7.911 22.209 20.224 22.619 36.809.216 8.757.038 17.526.038 26.581h61.274c11.456 0 19.027 7.626 20.067 19.031.89 9.76-1.62 18.649-4.848 27.58-3.323 9.242-8.117 17.882-14.196 25.595-4.802 6.104-10.209 11.786-15.745 17.232-7.193 7.045-14.755 13.721-22.242 20.46-4.094 3.68-7.778 7.65-10.127 12.669-.676 1.442-1.243 3.1-1.243 4.662-.071 37.551.083 75.107-.104 112.658-.219 45.127-33.599 85.372-77.898 93.938-6.845 1.289-13.789 1.968-20.754 2.035-19.475.265-38.949.095-58.424.091-47.53 0-87.357-32.412-96.659-78.953-1.227-6.436-1.832-12.975-1.807-19.527-.17-36.586-.074-73.171-.112-109.757-.025-1.144-.273-2.267-.729-3.315-2.971-6.905-8.212-11.969-13.674-16.901-7.371-6.664-14.663-13.41-21.877-20.24-8.416-7.953-15.965-16.697-21.435-26.938-6.161-11.517-11.39-23.469-11.386-36.921-.021-3.034.315-6.059.995-9.014 2.071-8.529 9.629-14.314 18.488-14.327 22.926-.029 45.856-.029 68.782 0l2.399-.029Zm67.73 41.418h-74.952c-4.819 0-8.958 3.237-9.58 7.957-.402 2.731-.364 5.512.116 8.231 1.658 8.388 5.3 15.984 11.142 22.217 5.842 6.233 12.198 11.778 18.132 17.82 4.483 4.559 7.33 9.984 7.322 16.669-.042 40.999-.042 81.998 0 122.997-.034 2.901.149 5.798.538 8.67 4.144 28.148 27.762 48.488 56.207 48.488 19.541 0 39.081-.009 58.622-.021 2.9.029 5.797-.137 8.676-.497 27.89-3.834 48.678-27.655 48.716-55.811 0-6.834-.058-13.676.045-20.502 0-1.587-.447-2.238-1.964-2.706-14.407-4.414-28.18-10.671-40.987-18.612-29.419-18.276-51.956-42.76-66.566-74.31-7.006-15.135-11.813-30.954-13.499-47.548-1.106-10.874-1.334-21.852-1.968-33.042Zm122.088 109.914c.124-10.261-8.092-18.678-18.352-18.798-10.259-.124-18.674 8.094-18.795 18.355-.124 10.261 8.093 18.678 18.352 18.798h.046c10.217.137 18.612-8.036 18.749-18.251v-.104Z"/><path d="M318.479 366.763c-.037 10.261-8.386 18.554-18.645 18.517-10.26-.038-18.551-8.388-18.514-18.65.038-10.261 8.387-18.553 18.646-18.516h.066c10.218.033 18.48 8.342 18.447 18.566v.083Z"/></g></g><defs><clipPath id="a"><path fill="#fff" d="M0 0h699v699H0z"/></clipPath></defs></svg>

<svg width="699" height="699" viewBox="0 0 699 699" fill="none" xmlns="http://www.w3.org/2000/svg">
<g clip-path="url(#clip0_219_55)">
<mask id="mask0_219_55" style="mask-type:luminance" maskUnits="userSpaceOnUse" x="0" y="0" width="699" height="699">
<path d="M699 0H0V699H699V0Z" fill="white"/>
</mask>
<g mask="url(#mask0_219_55)">
<path d="M349.5 37.2983C391.664 37.2983 432.548 45.5496 471.016 61.8199C489.509 69.6402 507.347 79.3253 524.037 90.5977C540.577 101.771 556.132 114.605 570.27 128.741C584.407 142.878 597.24 158.435 608.415 174.971C619.689 191.66 629.373 209.497 637.191 227.988C653.459 266.455 661.709 307.334 661.709 349.498C661.709 391.662 653.459 432.541 637.191 471.008C629.369 489.499 619.689 507.336 608.415 524.025C597.24 540.565 584.407 556.118 570.27 570.254C556.132 584.39 540.577 597.225 524.037 608.398C507.347 619.675 489.509 629.356 471.016 637.176C432.548 653.446 391.664 661.698 349.5 661.698C307.336 661.698 266.452 653.446 227.984 637.176C209.491 629.356 191.653 619.671 174.963 608.398C158.423 597.225 142.868 584.39 128.73 570.254C114.593 556.118 101.76 540.561 90.5852 524.025C79.3107 507.336 69.6274 489.499 61.8086 471.008C45.5412 432.541 37.2915 391.662 37.2915 349.498C37.2915 307.334 45.5412 266.455 61.8086 227.988C69.6315 209.497 79.3107 191.66 90.5852 174.971C101.76 158.431 114.593 142.878 128.73 128.741C142.868 114.605 158.423 101.771 174.963 90.5977C191.653 79.3211 209.491 69.6402 227.984 61.8199C266.452 45.5496 307.336 37.2983 349.5 37.2983ZM349.5 0C156.475 0 0 156.475 0 349.502C0 542.529 156.475 699.004 349.5 699.004C542.525 699.004 699 542.529 699 349.502C699 156.475 542.525 0 349.5 0Z" fill="white"/>
<path d="M243.446 215.58V189.811C243.446 168.966 257.086 152.024 277.63 148.398C293.156 145.659 307.505 148.56 318.928 160.441C326.415 168.224 330.277 177.627 330.426 188.436C330.555 197.4 330.455 206.368 330.455 215.456H377.6C377.633 214.897 377.691 214.304 377.691 213.707V189.256C377.753 166.102 396.047 147.814 419.193 147.602C427.173 147.519 434.938 148.311 442.044 152.161C456.625 160.072 464.253 172.385 464.663 188.97C464.879 197.727 464.701 206.496 464.701 215.551H525.975C537.431 215.551 545.002 223.177 546.042 234.582C546.932 244.342 544.422 253.231 541.194 262.162C537.871 271.404 533.077 280.044 526.998 287.757C522.196 293.861 516.789 299.543 511.253 304.989C504.06 312.034 496.498 318.71 489.011 325.449C484.917 329.129 481.233 333.099 478.884 338.118C478.208 339.56 477.641 341.218 477.641 342.78C477.57 380.331 477.724 417.887 477.537 455.438C477.318 500.565 443.938 540.81 399.639 549.376C392.794 550.665 385.85 551.344 378.885 551.411C359.41 551.676 339.936 551.506 320.461 551.502C272.931 551.502 233.104 519.09 223.802 472.549C222.575 466.113 221.97 459.574 221.995 453.022C221.825 416.436 221.921 379.851 221.883 343.265C221.858 342.121 221.61 340.998 221.154 339.95C218.183 333.045 212.942 327.981 207.48 323.049C200.109 316.385 192.817 309.639 185.603 302.809C177.187 294.856 169.638 286.112 164.168 275.871C158.007 264.354 152.778 252.402 152.782 238.95C152.761 235.916 153.097 232.891 153.777 229.936C155.848 221.407 163.406 215.622 172.265 215.609C195.191 215.58 218.121 215.58 241.047 215.609L243.446 215.58ZM311.176 256.998H236.224C231.405 256.998 227.266 260.235 226.644 264.955C226.242 267.686 226.28 270.467 226.76 273.186C228.418 281.574 232.06 289.17 237.902 295.403C243.744 301.636 250.1 307.181 256.034 313.223C260.517 317.782 263.364 323.207 263.356 329.892C263.314 370.891 263.314 411.89 263.356 452.889C263.322 455.79 263.505 458.687 263.894 461.559C268.038 489.707 291.656 510.047 320.101 510.047C339.642 510.047 359.182 510.038 378.723 510.026C381.623 510.055 384.52 509.889 387.399 509.529C415.289 505.695 436.077 481.874 436.115 453.718C436.115 446.884 436.057 440.042 436.16 433.216C436.16 431.629 435.713 430.978 434.196 430.51C419.789 426.096 406.016 419.839 393.209 411.898C363.79 393.622 341.253 369.138 326.643 337.588C319.637 322.453 314.83 306.634 313.144 290.04C312.038 279.166 311.81 268.188 311.176 256.998ZM433.264 366.912C433.388 356.651 425.172 348.234 414.912 348.114C404.653 347.99 396.238 356.208 396.117 366.469C395.993 376.73 404.21 385.147 414.469 385.267C414.486 385.267 414.502 385.267 414.515 385.267C424.732 385.404 433.127 377.231 433.264 367.016C433.264 366.983 433.264 366.95 433.264 366.912Z" fill="white"/>
<path d="M318.479 366.763C318.442 377.024 310.093 385.317 299.834 385.28C289.574 385.242 281.283 376.892 281.32 366.63C281.358 356.369 289.707 348.077 299.966 348.114C299.987 348.114 300.012 348.114 300.032 348.114C310.25 348.147 318.512 356.456 318.479 366.68C318.479 366.709 318.479 366.734 318.479 366.763Z" fill="white"/>
</g>
</g>
<defs>
<clipPath id="clip0_219_55">
<rect width="699" height="699" fill="white"/>
</clipPath>
</defs>
</svg>
